X: 20463
T: SLEEPING MAGGY.  (A Reel.)
C:
%R: reel
B: Elias Howe "The Musician's Companion" 1843 p.46 #3
S: http://imslp.org/wiki/The_Musician's_Companion_(Howe,_Elias)
Z: 2015 John Chambers <jc:trillian.mit.edu>
M: C|
L: 1/8
K: Bm
% - - - - - - - - - - - - - - - - - - - - - - - - -
|:\
f2Bb fBde | f2Bb eAce |\
f2Bb fBde | fgaf eAce ::\
fBdB fBde | fBdB eAce |\
fBdB fBde | fgaf eAce :|
% - - - - - - - - - - - - - - - - - - - - - - - - -

%%sep 1 1 500

